X: 7502
T: Coast Of Austria, The
R: reel
M: 4/4
K: Amajor
|:ceee fece|efff ecBc|Aeee fece|faag a2z2|
=c'ba=c' baf2|effe faa2|eece eaaf|ecBc A3B:|
|:cccB AFFF|EEEF AAAB|ceee fece|faag a2z2|
=c'ba=c' baf2|effe faa2|eece eaaf|ecBc A3B:|

